resources/icons/bettercodehub_dark.svg

<?xml version="1.0" encoding="UTF-8" standalone="no"?>
<svg
   xmlns:dc="http://purl.org/dc/elements/1.1/"
   xmlns:cc="http://creativecommons.org/ns#"
   xmlns:rdf="http://www.w3.org/1999/02/22-rdf-syntax-ns#"
   xmlns:svg="http://www.w3.org/2000/svg"
   xmlns="http://www.w3.org/2000/svg"
   xmlns:sodipodi="http://sodipodi.sourceforge.net/DTD/sodipodi-0.dtd"
   xmlns:inkscape="http://www.inkscape.org/namespaces/inkscape"
   id="Layer_1"
   data-name="Layer 1"
   viewBox="0 0 16 16"
   width="16"
   height="16"
   version="1.1"
   sodipodi:docname="bettercodehub_dark.svg"
   inkscape:version="0.92.4 (5da689c313, 2019-01-14)">
  <metadata
     id="metadata47">
    <rdf:RDF>
      <cc:Work
         rdf:about="">
        <dc:format>image/svg+xml</dc:format>
        <dc:type
           rdf:resource="http://purl.org/dc/dcmitype/StillImage" />
      </cc:Work>
    </rdf:RDF>
  </metadata>
  <sodipodi:namedview
     pagecolor="#ffffff"
     bordercolor="#666666"
     borderopacity="1"
     objecttolerance="10"
     gridtolerance="10"
     guidetolerance="10"
     inkscape:pageopacity="0"
     inkscape:pageshadow="2"
     inkscape:window-width="1920"
     inkscape:window-height="1001"
     id="namedview45"
     showgrid="false"
     inkscape:zoom="29.5"
     inkscape:cx="4.8683445"
     inkscape:cy="8.0672409"
     inkscape:window-x="-9"
     inkscape:window-y="-9"
     inkscape:window-maximized="1"
     inkscape:current-layer="Layer_1" />
  <defs
     id="defs4">
    <style
       id="style2">.cls-1{fill:#fff;}</style>
  </defs>
  <title
     id="title6">20181115_vignet bch 2019_white</title>
  <path
     class="cls-1"
     d="M 12.267973,9.3330114 A 1.3364324,1.3346745 0 0 1 10.936655,10.664281 H 5.0011218 A 1.3364324,1.3346745 0 0 1 3.6698035,9.3330114 V 5.9827061 A 1.3364324,1.3346745 0 0 1 5.0011218,4.6531385 h 5.9355332 a 1.3364324,1.3346745 0 0 1 1.331318,1.3295676 z M 7.9688883,2.3753394 A 6.6634109,6.6546464 0 0 0 3.1959153,13.670703 L 3.9152706,11.697631 A 0.7875405,0.78650465 0 0 1 4.597124,11.202236 h 6.750348 a 0.7875405,0.78650465 0 0 1 0.681852,0.495395 l 0.719356,1.973072 A 6.6634109,6.6546464 0 0 0 7.9688883,2.3753394"
     id="path8"
     inkscape:connector-curvature="0"
     style="fill:#ffffff;stroke-width:0.17035118" />
  <path
     class="cls-1"
     d="M 10.713347,5.6098823 10.386058,5.269404 10.367308,5.25238 A 0.34092662,0.3404782 0 0 0 10.167866,5.185987 0.27785521,0.27748973 0 0 0 9.9650141,5.267702 v 0 L 6.9375853,8.3115769 5.8943496,7.2697134 a 0.28808301,0.28770407 0 0 0 -0.4244537,0 L 5.1289694,7.6101917 A 0.30172007,0.30132321 0 0 0 5.0369204,7.824693 0.2625135,0.2621682 0 0 0 5.1357894,8.0340871 L 6.7142795,9.622418 6.7313255,9.63774 A 0.34092662,0.3404782 0 0 0 6.9307677,9.704133 0.27955983,0.27919212 0 0 0 7.1336191,9.622419 L 10.713347,6.0473968 a 0.3034247,0.30302559 0 0 0 0.09205,-0.2145012 0.2727413,0.27238255 0 0 0 -0.09205,-0.2230133 z"
     id="path10"
     inkscape:connector-curvature="0"
     style="fill:#ffffff;stroke-width:0.17035118" />
  <path
     class="cls-1"
     d="M 7.6160292,11.547823 H 6.5438149 a 0.12784749,0.12767933 0 0 0 -0.1176198,0.12938 v 0.275788 a 0.12443822,0.12427455 0 0 0 0.1176198,0.12938 H 7.6160292 A 0.12614284,0.12597693 0 0 0 7.7336489,11.951288 V 11.675501 A 0.11932432,0.11916737 0 0 0 7.6177337,11.547823"
     id="path12"
     inkscape:connector-curvature="0"
     style="fill:#ffffff;stroke-width:0.17035118" />
  <path
     class="cls-1"
     d="M 9.2371352,11.539309 H 8.1649211 A 0.12443822,0.12427455 0 0 0 8.0473013,11.66869 v 0.275789 a 0.12443822,0.12427455 0 0 0 0.1176198,0.129381 h 1.0705096 a 0.12614284,0.12597693 0 0 0 0.1176197,-0.131084 v -0.275787 a 0.12102895,0.12086977 0 0 0 -0.1159152,-0.12768"
     id="path14"
     inkscape:connector-curvature="0"
     style="fill:#ffffff;stroke-width:0.17035118" />
  <path
     class="cls-1"
     d="M 5.9454888,11.556334 H 4.874979 A 0.12614284,0.12597693 0 0 0 4.7556547,11.685715 V 11.9598 A 0.12443822,0.12427455 0 0 0 4.874979,12.089182 H 5.9454888 A 0.12614284,0.12597693 0 0 0 6.0631084,11.958098 V 11.685715 A 0.12443822,0.12427455 0 0 0 5.9454888,11.556334"
     id="path16"
     inkscape:connector-curvature="0"
     style="fill:#ffffff;stroke-width:0.17035118" />
  <path
     class="cls-1"
     d="M 10.836081,11.530798 H 9.7638668 a 0.12784749,0.12767933 0 0 0 -0.1176197,0.129381 v 0.274085 a 0.12443822,0.12427455 0 0 0 0.1159151,0.131085 h 1.0722148 a 0.12614284,0.12597693 0 0 0 0.117619,-0.131085 v -0.275786 a 0.12273359,0.12257215 0 0 0 -0.117619,-0.12768"
     id="path18"
     inkscape:connector-curvature="0"
     style="fill:#ffffff;stroke-width:0.17035118" />
  <path
     class="cls-1"
     d="M 6.9205388,12.288362 H 5.8483246 a 0.12443822,0.12427455 0 0 0 -0.1176195,0.129381 v 0.274085 a 0.12614284,0.12597693 0 0 0 0.1176195,0.131086 H 6.9188343 A 0.12784749,0.12767933 0 0 0 7.0381585,12.691828 V 12.419445 A 0.12273359,0.12257215 0 0 0 6.9205388,12.291767"
     id="path20"
     inkscape:connector-curvature="0"
     style="fill:#ffffff;stroke-width:0.17035118" />
  <path
     class="cls-1"
     d="M 8.5399402,12.279848 H 7.4694308 a 0.12443822,0.12427455 0 0 0 -0.1176199,0.129384 v 0.274086 a 0.12102895,0.12086977 0 0 0 0.1159152,0.129381 H 8.5399402 A 0.12614284,0.12597693 0 0 0 8.65756,12.681614 V 12.40753 A 0.12273359,0.12257215 0 0 0 8.5399402,12.279848"
     id="path22"
     inkscape:connector-curvature="0"
     style="fill:#ffffff;stroke-width:0.17035118" />
  <path
     class="cls-1"
     d="M 5.2499984,12.296874 H 4.1794886 a 0.12614284,0.12597693 0 0 0 -0.1176195,0.129381 v 0.275788 a 0.12443822,0.12427455 0 0 0 0.115915,0.129382 H 5.2482938 A 0.12784749,0.12767933 0 0 0 5.367618,12.700341 V 12.419445 A 0.12273359,0.12257215 0 0 0 5.2499984,12.291767"
     id="path24"
     inkscape:connector-curvature="0"
     style="fill:#ffffff;stroke-width:0.17035118" />
  <path
     class="cls-1"
     d="m 11.811131,12.261123 h -1.07051 a 0.12614284,0.12597693 0 0 0 -0.119324,0.129381 v 0.274085 a 0.12443822,0.12427455 0 0 0 0.11762,0.129385 h 1.070509 a 0.12614284,0.12597693 0 0 0 0.11762,-0.131086 v -0.272384 a 0.12273359,0.12257215 0 0 0 -0.115915,-0.129381"
     id="path26"
     inkscape:connector-curvature="0"
     style="fill:#ffffff;stroke-width:0.17035118" />
  <path
     class="cls-1"
     d="M 10.14059,12.271338 H 9.0700811 a 0.12614284,0.12597693 0 0 0 -0.1193243,0.129381 v 0.274085 a 0.12273359,0.12257215 0 0 0 0.1176197,0.129381 H 10.14059 a 0.12614284,0.12597693 0 0 0 0.11762,-0.131082 v -0.274085 a 0.12273359,0.12257215 0 0 0 -0.11762,-0.12768"
     id="path28"
     inkscape:connector-curvature="0"
     style="fill:#ffffff;stroke-width:0.17035118" />
  <path
     class="cls-1"
     d="M 7.6092107,13.020389 H 6.5369964 a 0.12443822,0.12427455 0 0 0 -0.1176197,0.129384 v 0.274085 a 0.12443822,0.12427455 0 0 0 0.1159151,0.12938 H 7.607506 a 0.12614284,0.12597693 0 0 0 0.1176197,-0.131084 v -0.272381 a 0.12273359,0.12257215 0 0 0 -0.115915,-0.129384"
     id="path30"
     inkscape:connector-curvature="0"
     style="fill:#ffffff;stroke-width:0.17035118" />
  <path
     class="cls-1"
     d="M 9.2286121,13.011878 H 8.1581025 a 0.12784749,0.12767933 0 0 0 -0.1193244,0.131085 v 0.274084 a 0.12443822,0.12427455 0 0 0 0.1176197,0.129382 H 9.2286121 A 0.12443822,0.12427455 0 0 0 9.3462318,13.417047 V 13.141259 A 0.12443822,0.12427455 0 0 0 9.2286121,13.011878"
     id="path32"
     inkscape:connector-curvature="0"
     style="fill:#ffffff;stroke-width:0.17035118" />
  <path
     class="cls-1"
     d="M 5.9386701,13.028902 H 4.8681605 a 0.12614284,0.12597693 0 0 0 -0.1193243,0.129381 v 0.282598 a 0.12443822,0.12427455 0 0 0 0.1176197,0.129381 h 1.0722142 a 0.12614284,0.12597693 0 0 0 0.1176197,-0.131085 v -0.280894 a 0.12102895,0.12086977 0 0 0 -0.115915,-0.129381"
     id="path34"
     inkscape:connector-curvature="0"
     style="fill:#ffffff;stroke-width:0.17035118" />
  <path
     class="cls-1"
     d="M 10.829264,13.003366 H 9.7570483 a 0.12443822,0.12427455 0 0 0 -0.1176196,0.129382 v 0.274084 a 0.12443822,0.12427455 0 0 0 0.1176196,0.129382 h 1.0722157 a 0.12443822,0.12427455 0 0 0 0.117618,-0.129382 v -0.275787 a 0.12102895,0.12086977 0 0 0 -0.115914,-0.127679"
     id="path36"
     inkscape:connector-curvature="0"
     style="fill:#ffffff;stroke-width:0.17035118" />
  <path
     class="cls-1"
     d="M 5.2431799,13.769442 H 4.1709656 a 0.12443822,0.12427455 0 0 0 -0.1176197,0.129382 v 0.274084 A 0.12102895,0.12086977 0 0 0 4.169261,14.302291 H 5.2397705 A 0.12784749,0.12767933 0 0 0 5.3590948,14.171206 V 13.898824 A 0.12443822,0.12427455 0 0 0 5.2414751,13.769442"
     id="path38"
     inkscape:connector-curvature="0"
     style="fill:#ffffff;stroke-width:0.17035118" />
  <path
     class="cls-1"
     d="m 11.778743,13.735395 h -1.07051 a 0.12614284,0.12597693 0 0 0 -0.119323,0.129381 v 0.274085 a 0.12273359,0.12257215 0 0 0 0.11762,0.129381 h 1.070508 a 0.12784749,0.12767933 0 0 0 0.119324,-0.131084 v -0.274085 a 0.12273359,0.12257215 0 0 0 -0.117619,-0.127678"
     id="path40"
     inkscape:connector-curvature="0"
     style="fill:#ffffff;stroke-width:0.17035118" />
  <path
     class="cls-1"
     d="M 10.157637,13.743906 H 9.5882897 9.0871276 8.5177801 8.5024384 8.4888012 7.747286 7.4165872 6.8881507 6.6767762 5.8244597 A 0.12955211,0.12938172 0 0 0 5.7051355,13.87499 v 0.274086 a 0.12273359,0.12257215 0 0 0 0.115915,0.12938 h 0.8523166 1.0705095 0.7415155 0.013637 0.015342 0.5710521 0.4994575 0.5710513 a 0.12614284,0.12597693 0 0 0 0.11762,-0.131082 v -0.275788 a 0.12273359,0.12257215 0 0 0 -0.11762,-0.12768"
     id="path42"
     inkscape:connector-curvature="0"
     style="fill:#ffffff;stroke-width:0.17035118" />
</svg>

<svg xmlns="http://www.w3.org/2000/svg" viewBox="0 0 16 16" width="16" height="16"><defs><style>.cls-1{fill:#fff}</style></defs><path class="cls-1" d="M12.268 9.333a1.336 1.335 0 01-1.331 1.331H5a1.336 1.335 0 01-1.33-1.331v-3.35A1.336 1.335 0 015 4.653h5.936a1.336 1.335 0 011.331 1.33zm-4.3-6.958a6.663 6.655 0 00-4.772 11.296l.72-1.973a.788.787 0 01.681-.496h6.75a.788.787 0 01.682.496l.72 1.973a6.663 6.655 0 00-4.78-11.296" fill="#fff" stroke-width=".17"/><path class="cls-1" d="M10.713 5.61l-.327-.34-.019-.018a.34.34 0 00-.2-.066.278.277 0 00-.202.082L6.938 8.312 5.894 7.27a.288.288 0 00-.424 0l-.341.34a.302.301 0 00-.092.215.263.262 0 00.099.21l1.578 1.587.017.016a.34.34 0 00.2.066.28.28 0 00.203-.082l3.58-3.575a.303.303 0 00.091-.214.273.272 0 00-.092-.223zm-3.097 5.938H6.544a.128.128 0 00-.118.13v.275a.124.124 0 00.118.13h1.072a.126.126 0 00.118-.132v-.275a.12.12 0 00-.116-.128m1.619-.008H8.165a.124.124 0 00-.118.129v.275a.124.124 0 00.118.13h1.07a.126.126 0 00.118-.131v-.276a.121.12 0 00-.116-.128m-3.292.017h-1.07a.126.126 0 00-.12.13v.274a.124.124 0 00.12.13h1.07a.126.126 0 00.118-.132v-.272a.124.124 0 00-.118-.13m4.891-.026H9.764a.128.128 0 00-.118.13v.274a.124.124 0 00.116.131h1.072a.126.126 0 00.118-.13v-.277a.123.123 0 00-.118-.127m-3.914.757H5.849a.124.124 0 00-.117.13v.274a.126.126 0 00.117.13h1.07a.128.128 0 00.12-.13v-.273a.123.123 0 00-.117-.127m1.618-.012H7.47a.124.124 0 00-.118.13v.273a.121.12 0 00.116.13H8.54a.126.126 0 00.118-.131v-.274a.123.123 0 00-.118-.128m-3.29.017H4.18a.126.126 0 00-.118.13v.275a.124.124 0 00.116.13h1.07a.128.128 0 00.12-.132v-.28a.123.123 0 00-.118-.128m6.561-.031h-1.07a.126.126 0 00-.12.13v.274a.124.124 0 00.118.129h1.07a.126.126 0 00.118-.131v-.272a.123.123 0 00-.116-.13m-1.671.01H9.07a.126.126 0 00-.12.13v.274a.123.123 0 00.118.13h1.073a.126.126 0 00.117-.132V12.4a.123.123 0 00-.117-.128m-2.531.748H6.536a.124.124 0 00-.118.13v.274a.124.124 0 00.116.13h1.073a.126.126 0 00.117-.132v-.272a.123.123 0 00-.116-.13m1.621-.008h-1.07a.128.128 0 00-.12.131v.274a.124.124 0 00.117.13H9.23a.124.124 0 00.117-.13v-.276a.124.124 0 00-.117-.13m-3.291.018h-1.07a.126.126 0 00-.12.13v.282a.124.124 0 00.117.13H5.94a.126.126 0 00.117-.132v-.28a.121.12 0 00-.116-.13m4.889-.026H9.756a.124.124 0 00-.118.13v.274a.124.124 0 00.118.13h1.072a.124.124 0 00.118-.13v-.276a.121.12 0 00-.116-.128m-5.587.767H4.171a.124.124 0 00-.118.129v.274a.121.12 0 00.116.13h1.07a.128.128 0 00.12-.132V13.9a.124.124 0 00-.118-.13m6.538-.035h-1.07a.126.126 0 00-.12.13v.274a.123.123 0 00.118.13h1.07a.128.128 0 00.12-.132v-.274a.123.123 0 00-.118-.128m-1.621.009H5.824a.13.13 0 00-.119.131v.274a.123.123 0 00.116.13h4.334a.126.126 0 00.119-.132v-.275a.123.123 0 00-.118-.128" fill="#fff" stroke-width=".17"/></svg>
